icons/evolvere-blue-folders-flat-vivid-dark-fallback/places/64/server-database.svg

<?xml version="1.0" encoding="UTF-8" standalone="no"?>
<!-- Created with Inkscape (http://www.inkscape.org/) -->

<svg
   xmlns:dc="http://purl.org/dc/elements/1.1/"
   xmlns:cc="http://creativecommons.org/ns#"
   xmlns:rdf="http://www.w3.org/1999/02/22-rdf-syntax-ns#"
   xmlns:svg="http://www.w3.org/2000/svg"
   xmlns="http://www.w3.org/2000/svg"
   xmlns:sodipodi="http://sodipodi.sourceforge.net/DTD/sodipodi-0.dtd"
   xmlns:inkscape="http://www.inkscape.org/namespaces/inkscape"
   version="1.1"
   width="64"
   height="64"
   id="svg13094"
   inkscape:version="0.91+devel r"
   sodipodi:docname="server-database.svg">
  <sodipodi:namedview
     pagecolor="#ffffff"
     bordercolor="#666666"
     borderopacity="1"
     objecttolerance="10"
     gridtolerance="10"
     guidetolerance="10"
     inkscape:pageopacity="0"
     inkscape:pageshadow="2"
     inkscape:window-width="1920"
     inkscape:window-height="1023"
     id="namedview72"
     showgrid="true"
     inkscape:snap-bbox="true"
     inkscape:bbox-paths="true"
     inkscape:bbox-nodes="true"
     inkscape:snap-bbox-edge-midpoints="true"
     inkscape:snap-bbox-midpoints="true"
     inkscape:object-paths="true"
     inkscape:snap-intersection-paths="true"
     inkscape:object-nodes="true"
     inkscape:snap-smooth-nodes="true"
     inkscape:snap-midpoints="true"
     inkscape:snap-object-midpoints="true"
     inkscape:snap-center="true"
     inkscape:zoom="10.429825"
     inkscape:cx="32.08541"
     inkscape:cy="28.466916"
     inkscape:window-x="-10"
     inkscape:window-y="35"
     inkscape:window-maximized="1"
     inkscape:current-layer="svg13094">
    <inkscape:grid
       type="xygrid"
       id="grid3049" />
  </sodipodi:namedview>
  <defs
     id="defs11" />
  <metadata
     id="metadata13099">
    <rdf:RDF>
      <cc:Work
         rdf:about="">
        <dc:format>image/svg+xml</dc:format>
        <dc:type
           rdf:resource="http://purl.org/dc/dcmitype/StillImage" />
        <dc:title></dc:title>
      </cc:Work>
    </rdf:RDF>
  </metadata>
  <path
     style="fill:#8e959c;fill-opacity:1;fill-rule:nonzero"
     id="path4183"
     d="M 2,0 0,1 0,56.5 C 0,60.64214 14.326888,64 32,64 49.673112,64 64,60.64214 64,56.5 L 64,1 62,0 47.46875,0 l 0,3.4375 -30.9375,0 0,-3.4375 L 2,0 Z"
     inkscape:connector-curvature="0" />
  <path
     inkscape:connector-curvature="0"
     d="M 2,0 0,1 0,56.5 C 0,60.64214 14.326888,64 32,64 49.673112,64 64,60.64214 64,56.5 L 64,1 62,0 47.46875,0 l 0,3.4375 -30.9375,0 0,-3.4375 L 2,0 Z"
     id="path4171"
     style="fill:#162f4d;fill-opacity:0.14847943;fill-rule:nonzero;opacity:1;stroke:none;stroke-width:0.62299293;stroke-linecap:butt;stroke-linejoin:miter;stroke-miterlimit:4;stroke-dasharray:none;stroke-dashoffset:0;stroke-opacity:1;marker:none" />
  <path
     style="fill:#465e7c;fill-rule:nonzero;fill-opacity:1"
     d="M 2 0 L 0 1 L 0 7.5 C 0 11.642136 14.326888 15 32 15 C 49.673112 15 64 11.642136 64 7.5 L 64 1 L 62 0 L 47.46875 0 L 47.46875 3.4375 L 16.53125 3.4375 L 16.53125 0 L 2 0 z "
     id="path3842" />
  <path
     style="color:#000000;display:inline;overflow:visible;visibility:visible;fill:#668cbb;fill-opacity:1;fill-rule:nonzero;stroke:none;stroke-width:2.28571415;marker:none;enable-background:accumulate"
     d="M 2,0 0,1 0,5.40625 C 2.305311,3.059675 8.422893,1.111852 16.53125,0 L 2,0 Z M 47.46875,0 C 55.577107,1.111852 61.694689,3.059675 64,5.40625 L 64,1 62,0 47.46875,0 Z M 0,9.59375 0,15 16.53125,15 C 8.420149,13.888784 2.305459,11.940476 0,9.59375 Z m 64,0 C 61.694541,11.940476 55.579851,13.888784 47.46875,15 L 64,15 64,9.59375 Z"
     id="path3883"
     inkscape:connector-curvature="0" />
  <path
     id="path4278"
     d="M 32,0 C 14.326888,0 0,3.357864 0,7.5 0,11.642136 14.326888,15 32,15 49.673112,15 64,11.642136 64,7.5 64,3.357864 49.673112,0 32,0 Z"
     style="fill:#dfe1e2;fill-opacity:1;fill-rule:nonzero"
     inkscape:connector-curvature="0" />
  <path
     d="m 0,23.5 0,1.4375 c 0.09001052,0.134458 0.17059217,0.279507 0.28125,0.40625 0.48168704,0.551706 1.1565822,1.032641 2,1.5 1.6868355,0.934717 4.0458131,1.752437 6.96875,2.4375 C 15.095874,30.651377 23.131778,31.5 32,31.5 c 8.868222,0 16.904126,-0.848623 22.75,-2.21875 2.922937,-0.685063 5.281914,-1.502783 6.96875,-2.4375 0.843418,-0.467359 1.518313,-0.948294 2,-1.5 C 63.829408,25.217007 63.909989,25.071958 64,24.9375 l 0,-1.4375 -0.5,0 c 0,0.37365 -0.1604,0.762742 -0.53125,1.1875 C 62.5979,25.112258 62.02587,25.538821 61.25,25.96875 59.698259,26.828608 57.367924,27.64033 54.5,28.3125 48.764152,29.656839 40.80489,30.5 32,30.5 23.19511,30.5 15.235848,29.656839 9.5,28.3125 6.6320759,27.64033 4.3017407,26.828608 2.75,25.96875 1.9741296,25.538821 1.4021002,25.112258 1.03125,24.6875 0.66039976,24.262742 0.5,23.87365 0.5,23.5 l -0.5,0 z"
     id="path3984"
     style="font-size:medium;font-style:normal;font-variant:normal;font-weight:normal;font-stretch:normal;text-indent:0;text-align:start;text-decoration:none;line-height:normal;letter-spacing:normal;word-spacing:normal;text-transform:none;direction:ltr;block-progression:tb;writing-mode:lr-tb;text-anchor:start;baseline-shift:baseline;color:#000000;fill:#162f4d;fill-opacity:0.35241502;stroke:none;stroke-width:0.62299293;marker:none;visibility:visible;display:inline;overflow:visible;enable-background:accumulate;font-family:Sans;-inkscape-font-specification:Sans;opacity:1;stroke-linecap:butt;stroke-linejoin:miter;stroke-miterlimit:4;stroke-dasharray:none;stroke-dashoffset:0;stroke-opacity:1" />
  <path
     d="m 0,40.5 0,1.4375 c 0.09001052,0.13446 0.17059217,0.27951 0.28125,0.40625 0.48168704,0.55171 1.1565822,1.03264 2,1.5 1.6868355,0.93472 4.0458131,1.75244 6.96875,2.4375 C 15.095874,47.65138 23.131778,48.5 32,48.5 c 8.868222,0 16.904126,-0.84862 22.75,-2.21875 2.922937,-0.68506 5.281914,-1.50278 6.96875,-2.4375 0.843418,-0.46736 1.518313,-0.94829 2,-1.5 C 63.829408,42.21701 63.909989,42.07196 64,41.9375 l 0,-1.4375 -0.5,0 c 0,0.37365 -0.1604,0.76274 -0.53125,1.1875 C 62.5979,42.11226 62.02587,42.53882 61.25,42.96875 59.698259,43.82861 57.367924,44.64033 54.5,45.3125 48.764152,46.65684 40.80489,47.5 32,47.5 23.19511,47.5 15.235848,46.65684 9.5,45.3125 6.6320759,44.64033 4.3017407,43.82861 2.75,42.96875 1.9741296,42.53882 1.4021002,42.11226 1.03125,41.6875 0.66039976,41.26274 0.5,40.87365 0.5,40.5 l -0.5,0 z"
     id="path3968"
     style="font-size:medium;font-style:normal;font-variant:normal;font-weight:normal;font-stretch:normal;text-indent:0;text-align:start;text-decoration:none;line-height:normal;letter-spacing:normal;word-spacing:normal;text-transform:none;direction:ltr;block-progression:tb;writing-mode:lr-tb;text-anchor:start;baseline-shift:baseline;color:#000000;fill:#162f4d;fill-opacity:0.35241502;stroke:none;stroke-width:0.62299293;marker:none;visibility:visible;display:inline;overflow:visible;enable-background:accumulate;font-family:Sans;-inkscape-font-specification:Sans;opacity:1;stroke-linecap:butt;stroke-linejoin:miter;stroke-miterlimit:4;stroke-dasharray:none;stroke-dashoffset:0;stroke-opacity:1"
     inkscape:connector-curvature="0" />
  <path
     d="m 0,15 0,47 2,2 14.53125,0 0,-49 L 0,15 z m 47.46875,0 0,49 L 62,64 64,62 64,15 47.46875,15 z"
     id="path3818"
     style="fill:#3b577a;fill-opacity:1;fill-rule:nonzero" />
  <path
     d="m 64,17 -2,-2 2,-1 z"
     id="path3028"
     style="fill:#162f4d;fill-opacity:0.35241502;opacity:1;stroke:none;stroke-width:0.62299293;stroke-linecap:butt;stroke-linejoin:miter;stroke-miterlimit:4;stroke-dasharray:none;stroke-dashoffset:0;stroke-opacity:1;marker:none" />
  <path
     d="M 0,17 2,15 0,14 z"
     id="path3028-3"
     style="fill:#87bde7;fill-opacity:0.54740607;opacity:1;stroke-width:1;stroke-linecap:butt;stroke-linejoin:miter;stroke-miterlimit:4;stroke-dasharray:none;stroke-dashoffset:0;stroke-opacity:1" />
  <path
     style="fill:#162f4d;fill-opacity:0.35241502;fill-rule:nonzero;stroke:none;color:#000000;stroke-width:0.62299293;marker:none;visibility:visible;display:inline;overflow:visible;enable-background:accumulate;opacity:1;stroke-linecap:butt;stroke-linejoin:miter;stroke-miterlimit:4;stroke-dasharray:none;stroke-dashoffset:0;stroke-opacity:1"
     d="M 0 30 L 0 31 L 16.53125 31 L 16.53125 30 L 0 30 z M 47.46875 30 L 47.46875 31 L 64 31 L 64 30 L 47.46875 30 z M 0 47 L 0 48 L 16.53125 48 L 16.53125 47 L 0 47 z M 47.46875 47 L 47.46875 48 L 64 48 L 64 47 L 47.46875 47 z "
     id="rect3831" />
  <path
     style="color:#000000;display:inline;overflow:visible;visibility:visible;fill:#2acec8;fill-opacity:1;fill-rule:nonzero;stroke:none;stroke-width:0.76123381;marker:none;enable-background:accumulate"
     d="m 59,29 1,1 0,1 -1,1 -7,0 -1,-1 0,-1 1,-1 z"
     id="path4265"
     inkscape:connector-curvature="0"
     sodipodi:nodetypes="ccccccccc" />
  <path
     style="color:#000000;display:inline;overflow:visible;visibility:visible;fill:#2acec8;fill-opacity:1;fill-rule:nonzero;stroke:none;stroke-width:0.76123381;marker:none;enable-background:accumulate"
     d="m 59,46 1,1 0,1 -1,1 -7,0 -1,-1 0,-1 1,-1 z"
     id="path4265-9"
     inkscape:connector-curvature="0"
     sodipodi:nodetypes="ccccccccc" />
</svg>

<svg xmlns="http://www.w3.org/2000/svg" viewBox="0 0 64 64"><path d="m2 0l-2 1v55.5c0 4.142 14.327 7.5 32 7.5 17.673 0 32-3.358 32-7.5v-55.5l-2-1h-14.531v3.438h-30.938v-3.438h-14.531" fill="#8e959c"/><path d="m2 0l-2 1v55.5c0 4.142 14.327 7.5 32 7.5 17.673 0 32-3.358 32-7.5v-55.5l-2-1h-14.531v3.438h-30.938v-3.438h-14.531" fill="#162f4d" fill-opacity=".148"/><path d="m2 0l-2 1v6.5c0 4.142 14.327 7.5 32 7.5 17.673 0 32-3.358 32-7.5v-6.5l-2-1h-14.531v3.438h-30.938v-3.438h-14.531" fill="#465e7c"/><path d="m2 0l-2 1v4.406c2.305-2.347 8.423-4.294 16.531-5.406h-14.531m45.47 0c8.108 1.112 14.226 3.06 16.531 5.406v-4.406l-2-1h-14.531m-47.47 9.594v5.406h16.531c-8.111-1.111-14.226-3.06-16.531-5.406m64 0c-2.305 2.347-8.42 4.295-16.531 5.406h16.531v-5.406" fill="#668cbb" color="#000"/><path d="m32 0c-17.673 0-32 3.358-32 7.5 0 4.142 14.327 7.5 32 7.5 17.673 0 32-3.358 32-7.5 0-4.142-14.327-7.5-32-7.5" fill="#dfe1e2"/><g fill="#162f4d" fill-opacity=".352" color="#000"><path d="m0 23.5v1.438c.09.134.171.28.281.406.482.552 1.157 1.033 2 1.5 1.687.935 4.046 1.752 6.969 2.438 5.846 1.37 13.882 2.219 22.75 2.219 8.868 0 16.904-.849 22.75-2.219 2.923-.685 5.282-1.503 6.969-2.438.843-.467 1.518-.948 2-1.5.111-.127.191-.272.281-.406v-1.438h-.5c0 .374-.16.763-.531 1.188-.371.425-.943.851-1.719 1.281-1.552.86-3.882 1.672-6.75 2.344-5.736 1.344-13.695 2.188-22.5 2.188-8.805 0-16.764-.843-22.5-2.188-2.868-.672-5.198-1.484-6.75-2.344-.776-.43-1.348-.856-1.719-1.281-.371-.425-.531-.814-.531-1.188h-.5"/><path d="m0 40.5v1.438c.09.134.171.28.281.406.482.552 1.157 1.033 2 1.5 1.687.935 4.046 1.752 6.969 2.438 5.846 1.37 13.882 2.219 22.75 2.219 8.868 0 16.904-.849 22.75-2.219 2.923-.685 5.282-1.503 6.969-2.438.843-.467 1.518-.948 2-1.5.111-.127.191-.272.281-.406v-1.438h-.5c0 .374-.16.763-.531 1.188-.371.425-.943.851-1.719 1.281-1.552.86-3.882 1.672-6.75 2.344-5.736 1.344-13.695 2.188-22.5 2.188-8.805 0-16.764-.843-22.5-2.188-2.868-.672-5.198-1.484-6.75-2.344-.776-.43-1.348-.856-1.719-1.281-.371-.425-.531-.814-.531-1.188h-.5"/></g><path d="m0 15v47l2 2h14.531v-49h-16.531m47.47 0v49h14.531l2-2v-47h-16.531" fill="#3b577a"/><path d="m64 17l-2-2 2-1z" fill="#162f4d" fill-opacity=".352"/><path d="m0 17l2-2-2-1z" fill="#87bde7" fill-opacity=".547"/><g color="#000"><path d="m0 30v1h16.531v-1h-16.531m47.47 0v1h16.531v-1h-16.531m-47.47 17v1h16.531v-1h-16.531m47.47 0v1h16.531v-1h-16.531" fill-opacity=".352" fill="#162f4d"/><g fill="#2acec8"><path d="m59 29l1 1v1l-1 1h-7l-1-1v-1l1-1z"/><path d="m59 46l1 1v1l-1 1h-7l-1-1v-1l1-1z"/></g></g></svg>
